src/22/actions/labplot-xy-equation-curve.svg

<svg xmlns="http://www.w3.org/2000/svg" viewBox="0 0 22 22">
  <defs id="defs3051">
    <style type="text/css" id="current-color-scheme">
      .ColorScheme-Text {
        color:#5d656b;
      }
      </style>
  </defs>
 <path 
     style="fill:currentColor;fill-opacity:1;stroke:none" 
     d="M 3 2 L 3 10.294922 L 3 10.5 L 3 11.5 L 3 11.705078 L 3 20 L 4 20 L 4 12.291016 C 4.1129846 12.37596 4.2278285 12.44804 4.3398438 12.546875 C 5.0832238 13.202805 5.7874731 14.113252 6.4707031 15.044922 C 7.1539331 15.976602 7.8144534 16.927778 8.5273438 17.673828 C 9.2402335 18.419878 10.04166 19 11 19 C 11.95833 19 12.757813 18.419878 13.470703 17.673828 C 14.183593 16.927778 14.844114 15.976602 15.527344 15.044922 C 16.210574 14.113252 16.914813 13.202805 17.658203 12.546875 C 18.401583 11.890955 19.15625 11.5 20 11.5 L 20 10.5 C 19.15625 10.5 18.401583 10.109045 17.658203 9.453125 C 16.914813 8.797195 16.210574 7.8867481 15.527344 6.9550781 C 14.844114 6.0233981 14.183593 5.0722219 13.470703 4.3261719 C 12.757813 3.5801219 11.95833 3 11 3 C 10.04166 3 9.2402335 3.5801219 8.5273438 4.3261719 C 7.8144534 5.0722219 7.1539331 6.0233981 6.4707031 6.9550781 C 5.7874731 7.8867481 5.0832237 8.797195 4.3398438 9.453125 C 4.2273158 9.5524125 4.1133904 9.6256915 4 9.7109375 L 4 2 L 3 2 z M 11 4 C 11.54166 4 12.115234 4.3573781 12.746094 5.0175781 C 13.376954 5.6777781 14.028933 6.6016019 14.720703 7.5449219 C 14.921682 7.8189854 15.137821 8.0875028 15.347656 8.359375 C 15.186983 8.4546776 15.048102 8.5845105 14.9375 8.7265625 C 14.7088 9.0202825 14.534664 9.3843106 14.371094 9.8066406 C 14.290876 10.013763 14.223626 10.268151 14.150391 10.5 L 11.566406 10.5 C 11.268023 8.9109552 10.977381 7.319357 10.716797 6.1171875 C 10.583017 5.5000075 10.456928 4.9848225 10.335938 4.6015625 C 10.291862 4.4619719 10.245706 4.3546002 10.197266 4.2441406 C 10.474105 4.0866779 10.740989 4 11 4 z M 9.4277344 5.0859375 C 9.5212344 5.4062975 9.6241614 5.8035981 9.7382812 6.3300781 C 9.9821215 7.4550205 10.263302 8.9781796 10.548828 10.5 L 8.2167969 10.5 C 8.324795 9.994712 8.4268139 9.4750758 8.5234375 8.953125 C 8.7413375 7.776095 8.9463581 6.61301 9.1738281 5.78125 C 9.2583281 5.47218 9.3436544 5.2772475 9.4277344 5.0859375 z M 7.9589844 6.6210938 C 7.8162746 7.3021789 7.6794214 8.0238347 7.5410156 8.7714844 C 7.4316022 9.3625208 7.317169 9.950634 7.1953125 10.5 L 5.6035156 10.5 C 5.5951976 10.479703 5.5886151 10.455424 5.5800781 10.435547 C 5.5008781 10.251117 5.4160231 10.084467 5.2832031 9.9296875 C 6.0138741 9.2243153 6.6644107 8.3807461 7.2773438 7.5449219 C 7.510607 7.2268366 7.7340538 6.9253851 7.9589844 6.6210938 z M 15.857422 9.2128906 C 15.905922 9.2503906 15.967414 9.3015925 16.052734 9.3828125 C 16.255344 9.5757625 16.525671 9.8611269 16.832031 10.160156 C 16.947289 10.272656 17.07423 10.386712 17.199219 10.5 L 15.197266 10.5 C 15.233004 10.396251 15.266171 10.262376 15.302734 10.167969 C 15.446724 9.7961882 15.600463 9.5018036 15.726562 9.3398438 C 15.831233 9.2054034 15.851312 9.2150106 15.857422 9.2128906 z M 4.6191406 11.5 L 4.8691406 11.5 C 4.8956423 11.594647 4.9230709 11.658729 4.9492188 11.755859 C 4.8430336 11.663815 4.7302859 11.583319 4.6191406 11.5 z M 5.9199219 11.5 L 6.9316406 11.5 C 6.8901086 11.646461 6.854297 11.826772 6.8105469 11.958984 C 6.6699969 12.383734 6.5143037 12.727197 6.3710938 12.935547 C 6.3462937 12.971547 6.3440656 12.951816 6.3222656 12.978516 C 6.3107656 12.944116 6.3026156 12.930578 6.2910156 12.892578 C 6.1926156 12.571878 6.0869962 12.131403 5.9726562 11.689453 C 5.9560868 11.625408 5.9368225 11.563864 5.9199219 11.5 z M 7.9648438 11.5 L 10.742188 11.5 C 11.006257 12.89112 11.27236 14.255152 11.529297 15.320312 C 11.679567 15.943233 11.825329 16.465868 11.974609 16.861328 C 12.049209 17.059058 12.121623 17.22452 12.220703 17.375 C 12.232182 17.39243 12.25457 17.412743 12.267578 17.431641 C 11.820801 17.801957 11.4014 18 11 18 C 10.45833 18 9.8828131 17.642622 9.2519531 16.982422 C 8.6210931 16.322222 7.9691135 15.398398 7.2773438 14.455078 C 7.1376299 14.264558 6.9855184 14.078984 6.8417969 13.888672 C 6.9761726 13.776311 7.0962613 13.646065 7.1953125 13.501953 C 7.4282325 13.163083 7.6025856 12.746494 7.7597656 12.271484 C 7.8368015 12.038681 7.8967477 11.758027 7.9648438 11.5 z M 11.759766 11.5 L 13.855469 11.5 C 13.74579 11.92816 13.639218 12.364309 13.541016 12.808594 C 13.302716 13.886714 13.092151 14.962866 12.900391 15.753906 C 12.862891 15.908386 12.832795 15.983341 12.796875 16.113281 C 12.702275 15.814541 12.607063 15.521678 12.501953 15.085938 C 12.26462 14.102075 12.011435 12.818979 11.759766 11.5 z M 14.884766 11.5 L 17.373047 11.5 C 17.244756 11.594591 17.116939 11.690246 16.996094 11.796875 C 16.145724 12.547205 15.412473 13.511748 14.720703 14.455078 C 14.471078 14.795475 14.232328 15.119511 13.992188 15.443359 C 14.159141 14.7005 14.326118 13.891603 14.517578 13.025391 C 14.633114 12.502699 14.755988 11.982492 14.884766 11.5 z "
     class="ColorScheme-Text"
     />
</svg>

<svg xmlns="http://www.w3.org/2000/svg" viewBox="0 0 22 22"><path d="M3 2v18h1v-7.709c.113.085.228.157.34.256.743.656 1.447 1.566 2.13 2.498.684.932 1.344 1.883 2.057 2.629C9.24 18.42 10.042 19 11 19s1.758-.58 2.47-1.326c.714-.746 1.374-1.697 2.057-2.63.684-.93 1.388-1.841 2.131-2.497.744-.656 1.498-1.047 2.342-1.047v-1c-.844 0-1.598-.391-2.342-1.047-.743-.656-1.447-1.566-2.13-2.498-.684-.932-1.344-1.883-2.057-2.629C12.758 3.58 11.958 3 11 3c-.958 0-1.76.58-2.473 1.326-.713.746-1.373 1.697-2.056 2.63-.684.93-1.388 1.841-2.131 2.497-.113.1-.227.173-.34.258V2H3zm8 2c.542 0 1.115.357 1.746 1.018.631.66 1.283 1.584 1.975 2.527.2.274.417.543.627.814-.161.096-.3.226-.41.368-.23.293-.403.657-.567 1.08-.08.207-.147.461-.22.693h-2.585c-.298-1.589-.589-3.18-.85-4.383a18.037 18.037 0 0 0-.38-1.515 3.349 3.349 0 0 0-.139-.358C10.474 4.087 10.741 4 11 4zM9.428 5.086c.093.32.196.718.31 1.244.244 1.125.525 2.648.81 4.17H8.218c.108-.505.21-1.025.306-1.547.218-1.177.423-2.34.65-3.172.085-.309.17-.504.255-.695zM7.959 6.62c-.143.681-.28 1.403-.418 2.15-.11.592-.224 1.18-.346 1.729H5.604c-.009-.02-.015-.045-.024-.064a1.884 1.884 0 0 0-.297-.506c.73-.706 1.381-1.55 1.994-2.385l.682-.924zm7.898 2.592c.049.037.11.089.196.17.202.193.473.478.779.777.115.113.242.227.367.34h-2.002c.036-.104.07-.238.106-.332.144-.372.297-.666.424-.828.104-.135.124-.125.13-.127zM4.62 11.5h.25c.027.095.054.159.08.256-.106-.092-.219-.173-.33-.256zm1.3 0h1.013c-.042.146-.078.327-.121.459-.141.425-.297.768-.44.977-.025.036-.027.016-.049.043-.011-.035-.02-.048-.031-.086-.098-.321-.204-.762-.318-1.204L5.92 11.5zm2.046 0h2.777c.264 1.391.53 2.755.787 3.82.15.623.296 1.146.446 1.541.074.198.147.364.246.514.011.017.034.038.047.057-.447.37-.867.568-1.268.568-.542 0-1.117-.357-1.748-1.018-.63-.66-1.283-1.584-1.975-2.527-.14-.19-.291-.376-.435-.566.134-.113.254-.243.353-.387.233-.339.408-.756.565-1.23.077-.233.137-.514.205-.772zm3.795 0h2.095c-.11.428-.216.864-.314 1.309-.238 1.078-.449 2.154-.64 2.945-.038.154-.068.23-.104.36-.095-.3-.19-.592-.295-1.028-.237-.984-.49-2.267-.742-3.586zm3.125 0h2.488a5.46 5.46 0 0 0-.377.297c-.85.75-1.584 1.715-2.275 2.658-.25.34-.489.665-.729.988.167-.742.334-1.551.526-2.418.115-.522.238-1.043.367-1.525z" fill="currentColor" color="#5d656b"/></svg>
